X:410
T:Winchester. (p)1698.PLFD1.410
M:6/4
L:1/4
Q:3/4=90
S:Playford, Dancing Master,10th Ed,1698
O:England;London
H:1698.
Z:Chris Partington.
K:Bb
(GA)B(cA)d|(cd)B(d/c/)(B/A/)(G/F/)|(GA)B(cA)d|cc2B3:|
|:(d=e)f(gd)g|(af)ab2b|(af)g(fd)e|(fc)BA2A|
(Ad)A(BG)c|(AB)GF2g|(fd)B(ec)A|A3G3:|
